static/assets/img/icons/theme/home/bag-chair.svg

<svg height="24" viewBox="0 0 24 24" width="24" xmlns="http://www.w3.org/2000/svg"><g fill="none" fill-rule="evenodd"><path d="m0 0h24v24h-24z" opacity="0"/><g fill="#000"><path d="m11.9998486 2c2.2982478 0 4.3992434 1.29848669 5.427051 3.35410197l3.322949 6.64589803c1.7066538 3.4133075.3231376 7.5638561-3.0901699 9.2705098-.9594675.4797338-2.0174527.7294902-3.09017.7294902h-5.13932018c-3.81619376 0-6.90983005-3.0936363-6.90983005-6.9098301 0-1.0727172.24975644-2.1307024.72949017-3.0901699l3.32294901-6.64589803c1.02780764-2.05561528 3.12880324-3.35410197 5.42705095-3.35410197z" opacity=".3"/><path d="m6.43734864 16.5 1.125-1.5c1.5129151 1.1346863 2.98708486 1.6875 4.43749996 1.6875s2.9245849-.5528137 4.4375-1.6875l1.125 1.5c-1.8204182 1.3653137-3.6795817 2.0625-5.5625 2.0625-1.8829182 0-3.74208174-.6971863-5.56249996-2.0625z" opacity=".3"/></g></g></svg>

<svg width="24px" height="24px" viewBox="0 0 24 24" version="1.1" xmlns="http://www.w3.org/2000/svg" xmlns:xlink="http://www.w3.org/1999/xlink">
    <title>Icon For Bag-chair</title>
    <g stroke="none" stroke-width="1" fill="none" fill-rule="evenodd">
        <rect opacity="0" x="0" y="0" width="24" height="24"></rect>
        <path d="M11.9998486,2 L11.9998486,2 C14.2980964,2 16.399092,3.29848669 17.4268996,5.35410197 L20.7498486,12 C22.4565024,15.4133075 21.0729862,19.5638561 17.6596787,21.2705098 C16.7002112,21.7502436 15.642226,22 14.5695087,22 L9.43018852,22 C5.61399476,22 2.52035847,18.9063637 2.52035847,15.0901699 C2.52035847,14.0174527 2.77011491,12.9594675 3.24984864,12 L6.57279765,5.35410197 C7.60060529,3.29848669 9.70160089,2 11.9998486,2 Z" fill="#000000" opacity="0.3"></path>
        <path d="M6.43734864,16.5 L7.56234864,15 C9.07526374,16.1346863 10.5494335,16.6875 11.9998486,16.6875 C13.4502637,16.6875 14.9244335,16.1346863 16.4373486,15 L17.5623486,16.5 C15.7419304,17.8653137 13.8827669,18.5625 11.9998486,18.5625 C10.1169304,18.5625 8.25776686,17.8653137 6.43734864,16.5 Z" fill="#000000" opacity="0.3"></path>
    </g>
</svg>
